icon-svg/kuma.svg

<svg xmlns="http://www.w3.org/2000/svg" fill="#44739e" viewBox="0 0 24 24"><path d="M11.817 9.307a2.907 2.907 0 0 0-2.68 1.472 7.5 7.5 0 0 0-.62 2.628 1.31 1.31 0 0 0 .181.8 6.57 6.57 0 0 0 3.212.482 10.84 10.84 0 0 0 3.573-.653 9.1 9.1 0 0 0-.906-3.2 3.013 3.013 0 0 0-2.76-1.529M20.45 8l-.1-.224-.129-.207a10.19 10.19 0 0 0-3.561-3.53 9.6 9.6 0 0 0-4.845-1.243 9.526 9.526 0 0 0-4.845 1.25A10.04 10.04 0 0 0 3.44 7.6l-.14.225-.1.247A14.18 14.18 0 0 0 2 13.407a7.592 7.592 0 0 0 1.741 5.031c1.927 2.29 5.287 2.771 7.766 2.771h.117a19.7 19.7 0 0 0 3.912-.417 12.02 12.02 0 0 0 3.519-1.267A5.979 5.979 0 0 0 22 14.059 15.51 15.51 0 0 0 20.45 8m-1.506 11.334a11.8 11.8 0 0 1-3.454 1.242 19.5 19.5 0 0 1-3.867.413h-.116c-2.461 0-5.732-.475-7.6-2.693a7.375 7.375 0 0 1-1.69-4.889A13.96 13.96 0 0 1 3.4 8.156l.1-.232.13-.213a9.81 9.81 0 0 1 3.452-3.479 9.313 9.313 0 0 1 4.735-1.221 9.39 9.39 0 0 1 4.736 1.214 9.99 9.99 0 0 1 3.483 3.455l.121.194.091.209a15.3 15.3 0 0 1 1.532 5.976 5.766 5.766 0 0 1-2.836 5.275m1.102-11.163-.085-.194-.112-.18a9.75 9.75 0 0 0-3.406-3.38 9.16 9.16 0 0 0-4.626-1.186 9.1 9.1 0 0 0-4.624 1.191 9.6 9.6 0 0 0-3.376 3.4l-.121.2-.087.215a13.73 13.73 0 0 0-1.168 5.168 7.157 7.157 0 0 0 1.638 4.747c1.846 2.2 5.145 2.628 7.543 2.614a19.26 19.26 0 0 0 3.822-.407 11.59 11.59 0 0 0 3.39-1.217 5.555 5.555 0 0 0 2.725-5.085 15.1 15.1 0 0 0-1.513-5.886m-2.682 8.441c-2.536 1.471-9.143 1.92-11.045-.342q-1.9-2.262 0-6.926a6.1 6.1 0 0 1 5.5-3.185 6.209 6.209 0 0 1 5.547 3.185q2.534 5.796-.002 7.268"/></svg>

<?xml version="1.0" encoding="UTF-8"?>
<svg width="24px" fill="#44739e" height="24px" viewBox="0 0 24 24" version="1.1" xmlns="http://www.w3.org/2000/svg" xmlns:xlink="http://www.w3.org/1999/xlink">
            <path d="m 11.817,9.307 a 2.907,2.907 0 0 0 -2.68,1.472 7.5,7.5 0 0 0 -0.62,2.628 1.31,1.31 0 0 0 0.181,0.8 6.571,6.571 0 0 0 3.212,0.482 10.836,10.836 0 0 0 3.573,-0.653 9.1,9.1 0 0 0 -0.906,-3.2 3.013,3.013 0 0 0 -2.76,-1.529 z M 20.45,8 20.35,7.776 20.221,7.569 A 10.191,10.191 0 0 0 16.66,4.039 9.6,9.6 0 0 0 11.815,2.796 9.526,9.526 0 0 0 6.97,4.046 10.04,10.04 0 0 0 3.44,7.6 L 3.3,7.825 3.2,8.072 A 14.181,14.181 0 0 0 2,13.407 7.592,7.592 0 0 0 3.741,18.438 c 1.927,2.29 5.287,2.771 7.766,2.771 h 0.117 A 19.707,19.707 0 0 0 15.536,20.792 12.015,12.015 0 0 0 19.055,19.525 5.979,5.979 0 0 0 22,14.059 15.509,15.509 0 0 0 20.45,8 Z m -1.506,11.334 a 11.8,11.8 0 0 1 -3.454,1.242 19.486,19.486 0 0 1 -3.867,0.413 h -0.116 c -2.461,0 -5.732,-0.475 -7.6,-2.693 A 7.375,7.375 0 0 1 2.217,13.407 13.961,13.961 0 0 1 3.4,8.156 L 3.5,7.924 3.63,7.711 a 9.812,9.812 0 0 1 3.452,-3.479 9.313,9.313 0 0 1 4.735,-1.221 9.392,9.392 0 0 1 4.736,1.214 9.993,9.993 0 0 1 3.483,3.455 l 0.121,0.194 0.091,0.209 a 15.3,15.3 0 0 1 1.532,5.976 5.766,5.766 0 0 1 -2.836,5.275 z M 20.046,8.171 19.961,7.977 19.849,7.797 A 9.747,9.747 0 0 0 16.443,4.417 9.159,9.159 0 0 0 11.817,3.231 9.1,9.1 0 0 0 7.193,4.422 9.6,9.6 0 0 0 3.817,7.822 l -0.121,0.2 -0.087,0.215 a 13.731,13.731 0 0 0 -1.168,5.168 7.157,7.157 0 0 0 1.638,4.747 c 1.846,2.2 5.145,2.628 7.543,2.614 a 19.256,19.256 0 0 0 3.822,-0.407 11.591,11.591 0 0 0 3.39,-1.217 5.555,5.555 0 0 0 2.725,-5.085 15.1,15.1 0 0 0 -1.513,-5.886 z m -2.682,8.441 C 14.828,18.083 8.221,18.532 6.319,16.27 q -1.9,-2.262 0,-6.926 a 6.1,6.1 0 0 1 5.5,-3.185 6.209,6.209 0 0 1 5.547,3.185 q 2.534,5.796 -0.002,7.268 z"/>

</svg>
